images/16758287.svg

<?xml version="1.0" encoding="UTF-8"?>
<svg xmlns="http://www.w3.org/2000/svg" xmlns:xlink="http://www.w3.org/1999/xlink" width="300pt" height="300pt" viewBox="0 0 300 300" version="1.1">
<defs>
<g>
<symbol overflow="visible" id="glyph0-0">
<path style="stroke:none;" d="M 0.453125 1.59375 L 0.453125 -6.34375 L 4.953125 -6.34375 L 4.953125 1.59375 Z M 0.953125 1.09375 L 4.453125 1.09375 L 4.453125 -5.84375 L 0.953125 -5.84375 Z M 0.953125 1.09375 "/>
</symbol>
<symbol overflow="visible" id="glyph0-1">
<path style="stroke:none;" d="M 3.546875 -5.953125 C 2.898438 -5.953125 2.382812 -5.710938 2 -5.234375 C 1.625 -4.753906 1.4375 -4.101562 1.4375 -3.28125 C 1.4375 -2.445312 1.625 -1.789062 2 -1.3125 C 2.382812 -0.832031 2.898438 -0.59375 3.546875 -0.59375 C 4.191406 -0.59375 4.703125 -0.832031 5.078125 -1.3125 C 5.453125 -1.789062 5.640625 -2.445312 5.640625 -3.28125 C 5.640625 -4.101562 5.453125 -4.753906 5.078125 -5.234375 C 4.703125 -5.710938 4.191406 -5.953125 3.546875 -5.953125 Z M 3.546875 -6.6875 C 4.460938 -6.6875 5.195312 -6.375 5.75 -5.75 C 6.300781 -5.132812 6.578125 -4.3125 6.578125 -3.28125 C 6.578125 -2.238281 6.300781 -1.410156 5.75 -0.796875 C 5.195312 -0.179688 4.460938 0.125 3.546875 0.125 C 2.617188 0.125 1.878906 -0.179688 1.328125 -0.796875 C 0.773438 -1.410156 0.5 -2.238281 0.5 -3.28125 C 0.5 -4.3125 0.773438 -5.132812 1.328125 -5.75 C 1.878906 -6.375 2.617188 -6.6875 3.546875 -6.6875 Z M 3.546875 -6.6875 "/>
</symbol>
</g>
</defs>
<g id="surface52461">
<rect x="0" y="0" width="300" height="300" style="fill:rgb(100%,100%,100%);fill-opacity:1;stroke:none;"/>
<path style=" stroke:none;fill-rule:nonzero;fill:rgb(0%,0%,0%);fill-opacity:1;" d="M 214.183594 194.175781 L 230.679688 213.886719 L 236.429688 207.050781 Z M 214.183594 194.175781 "/>
<path style="fill:none;stroke-width:1.2;stroke-linecap:butt;stroke-linejoin:miter;stroke:rgb(0%,0%,0%);stroke-opacity:1;stroke-miterlimit:10;" d="M 214.183594 194.175781 L 195.0625 210.757812 "/>
<path style="fill:none;stroke-width:1.2;stroke-linecap:butt;stroke-linejoin:miter;stroke:rgb(0%,0%,0%);stroke-opacity:1;stroke-miterlimit:10;" d="M 227.246094 172.492188 L 214.183594 194.175781 "/>
<path style="fill:none;stroke-width:1.2;stroke-linecap:butt;stroke-linejoin:miter;stroke:rgb(0%,0%,0%);stroke-opacity:1;stroke-miterlimit:10;" d="M 195.0625 210.757812 L 183.40625 215.691406 "/>
<path style="fill:none;stroke-width:1.2;stroke-linecap:butt;stroke-linejoin:miter;stroke:rgb(100%,0%,0%);stroke-opacity:1;stroke-miterlimit:10;" d="M 183.40625 215.691406 L 171.75 220.621094 "/>
<path style="fill:none;stroke-width:1.2;stroke-linecap:butt;stroke-linejoin:miter;stroke:rgb(100%,0%,0%);stroke-opacity:1;stroke-miterlimit:10;" d="M 171.75 220.621094 L 159.140625 221.710938 "/>
<path style="fill:none;stroke-width:1.2;stroke-linecap:butt;stroke-linejoin:miter;stroke:rgb(0%,0%,0%);stroke-opacity:1;stroke-miterlimit:10;" d="M 159.140625 221.710938 L 146.53125 222.796875 "/>
<path style=" stroke:none;fill-rule:nonzero;fill:rgb(100%,100%,100%);fill-opacity:1;" d="M 167.75 215.121094 L 175.75 215.121094 L 175.75 226.121094 L 167.75 226.121094 Z M 167.75 215.121094 "/>
<g style="fill:rgb(100%,0%,0%);fill-opacity:1;">
  <use xlink:href="#glyph0-1" x="167.75" y="223.78418"/>
</g>
<path style="fill:none;stroke-width:1.2;stroke-linecap:butt;stroke-linejoin:miter;stroke:rgb(0%,0%,0%);stroke-opacity:1;stroke-miterlimit:10;" d="M 143.558594 222.585938 L 142.660156 235.210938 "/>
<path style="fill:none;stroke-width:1.2;stroke-linecap:butt;stroke-linejoin:miter;stroke:rgb(100%,0%,0%);stroke-opacity:1;stroke-miterlimit:10;" d="M 142.660156 235.210938 L 141.765625 247.835938 "/>
<path style="fill:none;stroke-width:1.2;stroke-linecap:butt;stroke-linejoin:miter;stroke:rgb(0%,0%,0%);stroke-opacity:1;stroke-miterlimit:10;" d="M 149.5 223.011719 L 148.601562 235.632812 "/>
<path style="fill:none;stroke-width:1.2;stroke-linecap:butt;stroke-linejoin:miter;stroke:rgb(100%,0%,0%);stroke-opacity:1;stroke-miterlimit:10;" d="M 148.601562 235.632812 L 147.703125 248.257812 "/>
<path style="fill:none;stroke-width:1.2;stroke-linecap:butt;stroke-linejoin:miter;stroke:rgb(0%,0%,0%);stroke-opacity:1;stroke-miterlimit:10;" d="M 146.53125 222.796875 L 121.871094 217.074219 "/>
<path style=" stroke:none;fill-rule:nonzero;fill:rgb(100%,100%,100%);fill-opacity:1;" d="M 140.734375 242.546875 L 148.734375 242.546875 L 148.734375 253.546875 L 140.734375 253.546875 Z M 140.734375 242.546875 "/>
<g style="fill:rgb(100%,0%,0%);fill-opacity:1;">
  <use xlink:href="#glyph0-1" x="140.734375" y="251.209961"/>
</g>
<path style="fill:none;stroke-width:1.2;stroke-linecap:butt;stroke-linejoin:miter;stroke:rgb(0%,0%,0%);stroke-opacity:1;stroke-miterlimit:10;" d="M 121.871094 217.074219 L 100.191406 204.011719 "/>
<path style="fill:none;stroke-width:1.2;stroke-linecap:butt;stroke-linejoin:miter;stroke:rgb(0%,0%,0%);stroke-opacity:1;stroke-miterlimit:10;" d="M 100.191406 204.011719 L 83.605469 184.890625 "/>
<path style="fill:none;stroke-width:1.2;stroke-linecap:butt;stroke-linejoin:miter;stroke:rgb(0%,0%,0%);stroke-opacity:1;stroke-miterlimit:10;" d="M 103.03125 198.199219 L 89.765625 182.898438 "/>
<path style="fill:none;stroke-width:1.2;stroke-linecap:butt;stroke-linejoin:miter;stroke:rgb(0%,0%,0%);stroke-opacity:1;stroke-miterlimit:10;" d="M 83.605469 184.890625 L 73.746094 161.578125 "/>
<path style="fill:none;stroke-width:1.2;stroke-linecap:butt;stroke-linejoin:miter;stroke:rgb(0%,0%,0%);stroke-opacity:1;stroke-miterlimit:10;" d="M 73.746094 161.578125 L 71.566406 136.359375 "/>
<path style="fill:none;stroke-width:1;stroke-linecap:butt;stroke-linejoin:miter;stroke:rgb(0%,0%,0%);stroke-opacity:1;stroke-miterlimit:10;" d="M 73.746094 161.578125 L 73.746094 161.578125 M 70.75 161.78125 L 71.003906 162.792969 M 67.757812 161.988281 L 68.261719 164.011719 M 64.765625 162.191406 L 65.519531 165.230469 M 61.773438 162.398438 L 62.777344 166.445312 M 58.78125 162.601562 L 60.035156 167.664062 M 55.785156 162.808594 L 57.292969 168.878906 M 52.792969 163.011719 L 54.550781 170.097656 M 49.800781 163.21875 L 51.808594 171.316406 M 48.101562 163.335938 L 50.25 172.007812 "/>
<path style="fill:none;stroke-width:1.2;stroke-linecap:butt;stroke-linejoin:miter;stroke:rgb(0%,0%,0%);stroke-opacity:1;stroke-miterlimit:10;" d="M 71.566406 136.359375 L 77.292969 111.699219 "/>
<path style=" stroke:none;fill-rule:nonzero;fill:rgb(0%,0%,0%);fill-opacity:1;" d="M 71.566406 136.359375 L 46.636719 130.105469 L 46.003906 139.015625 Z M 71.566406 136.359375 "/>
<path style="fill:none;stroke-width:1.2;stroke-linecap:butt;stroke-linejoin:miter;stroke:rgb(0%,0%,0%);stroke-opacity:1;stroke-miterlimit:10;" d="M 77.292969 111.699219 L 83.824219 100.859375 "/>
<path style="fill:none;stroke-width:1.2;stroke-linecap:butt;stroke-linejoin:miter;stroke:rgb(100%,0%,0%);stroke-opacity:1;stroke-miterlimit:10;" d="M 83.824219 100.859375 L 90.355469 90.019531 "/>
<path style="fill:none;stroke-width:1.2;stroke-linecap:butt;stroke-linejoin:miter;stroke:rgb(100%,0%,0%);stroke-opacity:1;stroke-miterlimit:10;" d="M 90.355469 90.019531 L 99.917969 81.726562 "/>
<path style="fill:none;stroke-width:1.2;stroke-linecap:butt;stroke-linejoin:miter;stroke:rgb(0%,0%,0%);stroke-opacity:1;stroke-miterlimit:10;" d="M 99.917969 81.726562 L 109.476562 73.433594 "/>
<path style=" stroke:none;fill-rule:nonzero;fill:rgb(100%,100%,100%);fill-opacity:1;" d="M 86.355469 84.519531 L 94.355469 84.519531 L 94.355469 95.519531 L 86.355469 95.519531 Z M 86.355469 84.519531 "/>
<g style="fill:rgb(100%,0%,0%);fill-opacity:1;">
  <use xlink:href="#glyph0-1" x="86.355469" y="93.182617"/>
</g>
<path style="fill:none;stroke-width:1.2;stroke-linecap:butt;stroke-linejoin:miter;stroke:rgb(0%,0%,0%);stroke-opacity:1;stroke-miterlimit:10;" d="M 112.003906 71.859375 L 105.3125 61.117188 "/>
<path style="fill:none;stroke-width:1.2;stroke-linecap:butt;stroke-linejoin:miter;stroke:rgb(100%,0%,0%);stroke-opacity:1;stroke-miterlimit:10;" d="M 105.3125 61.117188 L 98.617188 50.378906 "/>
<path style="fill:none;stroke-width:1.2;stroke-linecap:butt;stroke-linejoin:miter;stroke:rgb(0%,0%,0%);stroke-opacity:1;stroke-miterlimit:10;" d="M 106.949219 75.011719 L 100.257812 64.269531 "/>
<path style="fill:none;stroke-width:1.2;stroke-linecap:butt;stroke-linejoin:miter;stroke:rgb(100%,0%,0%);stroke-opacity:1;stroke-miterlimit:10;" d="M 100.257812 64.269531 L 93.5625 53.527344 "/>
<path style="fill:none;stroke-width:1.2;stroke-linecap:butt;stroke-linejoin:miter;stroke:rgb(0%,0%,0%);stroke-opacity:1;stroke-miterlimit:10;" d="M 109.476562 73.433594 L 132.789062 63.570312 "/>
<path style=" stroke:none;fill-rule:nonzero;fill:rgb(100%,100%,100%);fill-opacity:1;" d="M 88.089844 46.453125 L 96.089844 46.453125 L 96.089844 57.453125 L 88.089844 57.453125 Z M 88.089844 46.453125 "/>
<g style="fill:rgb(100%,0%,0%);fill-opacity:1;">
  <use xlink:href="#glyph0-1" x="88.089844" y="55.116211"/>
</g>
<path style="fill:none;stroke-width:1.2;stroke-linecap:butt;stroke-linejoin:miter;stroke:rgb(0%,0%,0%);stroke-opacity:1;stroke-miterlimit:10;" d="M 132.789062 63.570312 L 158.007812 61.394531 "/>
<path style="fill:none;stroke-width:1.2;stroke-linecap:butt;stroke-linejoin:miter;stroke:rgb(0%,0%,0%);stroke-opacity:1;stroke-miterlimit:10;" d="M 158.007812 61.394531 L 182.667969 67.121094 "/>
<path style="fill:none;stroke-width:1.2;stroke-linecap:butt;stroke-linejoin:miter;stroke:rgb(0%,0%,0%);stroke-opacity:1;stroke-miterlimit:10;" d="M 159.128906 67.769531 L 178.855469 72.347656 "/>
<path style="fill:none;stroke-width:1.2;stroke-linecap:butt;stroke-linejoin:miter;stroke:rgb(0%,0%,0%);stroke-opacity:1;stroke-miterlimit:10;" d="M 182.667969 67.121094 L 204.347656 80.183594 "/>
<path style="fill:none;stroke-width:1.2;stroke-linecap:butt;stroke-linejoin:miter;stroke:rgb(0%,0%,0%);stroke-opacity:1;stroke-miterlimit:10;" d="M 204.347656 80.183594 L 220.933594 99.304688 "/>
<path style="fill:none;stroke-width:1;stroke-linecap:butt;stroke-linejoin:miter;stroke:rgb(0%,0%,0%);stroke-opacity:1;stroke-miterlimit:10;" d="M 204.347656 80.183594 L 204.347656 80.183594 M 206.648438 78.257812 L 205.851562 77.585938 M 208.949219 76.332031 L 207.355469 74.988281 M 211.25 74.40625 L 208.855469 72.394531 M 213.550781 72.480469 L 210.359375 69.796875 M 215.851562 70.554688 L 211.863281 67.199219 M 218.152344 68.628906 L 213.363281 64.601562 M 220.453125 66.703125 L 214.867188 62.007812 M 222.753906 64.78125 L 216.371094 59.410156 M 224.058594 63.6875 L 217.222656 57.933594 "/>
<path style="fill:none;stroke-width:1.2;stroke-linecap:butt;stroke-linejoin:miter;stroke:rgb(0%,0%,0%);stroke-opacity:1;stroke-miterlimit:10;" d="M 220.933594 99.304688 L 230.792969 122.617188 "/>
<path style="fill:none;stroke-width:1;stroke-linecap:butt;stroke-linejoin:miter;stroke:rgb(0%,0%,0%);stroke-opacity:1;stroke-miterlimit:10;" d="M 220.933594 99.304688 L 220.933594 99.304688 M 223.714844 98.1875 L 223.164062 97.300781 M 226.5 97.066406 L 225.394531 95.296875 M 229.28125 95.945312 L 227.625 93.289062 M 232.0625 94.824219 L 229.859375 91.285156 M 234.847656 93.703125 L 232.089844 89.28125 M 237.628906 92.585938 L 234.320312 87.273438 M 240.414062 91.464844 L 236.554688 85.269531 M 243.195312 90.34375 L 238.785156 83.265625 M 244.777344 89.707031 L 240.050781 82.125 "/>
<path style="fill:none;stroke-width:1.2;stroke-linecap:butt;stroke-linejoin:miter;stroke:rgb(0%,0%,0%);stroke-opacity:1;stroke-miterlimit:10;" d="M 230.792969 122.617188 L 231.882812 135.226562 "/>
<path style="fill:none;stroke-width:1.2;stroke-linecap:butt;stroke-linejoin:miter;stroke:rgb(100%,0%,0%);stroke-opacity:1;stroke-miterlimit:10;" d="M 231.882812 135.226562 L 232.972656 147.835938 "/>
<path style="fill:none;stroke-width:1.2;stroke-linecap:butt;stroke-linejoin:miter;stroke:rgb(100%,0%,0%);stroke-opacity:1;stroke-miterlimit:10;" d="M 232.972656 147.835938 L 230.109375 160.164062 "/>
<path style="fill:none;stroke-width:1.2;stroke-linecap:butt;stroke-linejoin:miter;stroke:rgb(0%,0%,0%);stroke-opacity:1;stroke-miterlimit:10;" d="M 230.109375 160.164062 L 227.246094 172.492188 "/>
<path style=" stroke:none;fill-rule:nonzero;fill:rgb(100%,100%,100%);fill-opacity:1;" d="M 228.972656 142.335938 L 236.972656 142.335938 L 236.972656 153.335938 L 228.972656 153.335938 Z M 228.972656 142.335938 "/>
<g style="fill:rgb(100%,0%,0%);fill-opacity:1;">
  <use xlink:href="#glyph0-1" x="228.972656" y="150.999023"/>
</g>
<path style="fill:none;stroke-width:1.2;stroke-linecap:butt;stroke-linejoin:miter;stroke:rgb(0%,0%,0%);stroke-opacity:1;stroke-miterlimit:10;" d="M 226.128906 175.253906 L 237.859375 180.007812 "/>
<path style="fill:none;stroke-width:1.2;stroke-linecap:butt;stroke-linejoin:miter;stroke:rgb(100%,0%,0%);stroke-opacity:1;stroke-miterlimit:10;" d="M 237.859375 180.007812 L 249.585938 184.765625 "/>
<path style="fill:none;stroke-width:1.2;stroke-linecap:butt;stroke-linejoin:miter;stroke:rgb(0%,0%,0%);stroke-opacity:1;stroke-miterlimit:10;" d="M 228.367188 169.734375 L 240.09375 174.488281 "/>
<path style="fill:none;stroke-width:1.2;stroke-linecap:butt;stroke-linejoin:miter;stroke:rgb(100%,0%,0%);stroke-opacity:1;stroke-miterlimit:10;" d="M 240.09375 174.488281 L 251.824219 179.246094 "/>
<path style=" stroke:none;fill-rule:nonzero;fill:rgb(100%,100%,100%);fill-opacity:1;" d="M 246.707031 176.503906 L 254.707031 176.503906 L 254.707031 187.503906 L 246.707031 187.503906 Z M 246.707031 176.503906 "/>
<g style="fill:rgb(100%,0%,0%);fill-opacity:1;">
  <use xlink:href="#glyph0-1" x="246.707031" y="185.166992"/>
</g>
<path style="fill:none;stroke-width:1.2;stroke-linecap:butt;stroke-linejoin:miter;stroke:rgb(100%,0%,0%);stroke-opacity:1;stroke-miterlimit:10;" d="M 242.414062 85.917969 L 253.582031 91.871094 "/>
<path style="fill:none;stroke-width:1.2;stroke-linecap:butt;stroke-linejoin:miter;stroke:rgb(0%,0%,0%);stroke-opacity:1;stroke-miterlimit:10;" d="M 253.582031 91.871094 L 264.75 97.828125 "/>
<path style=" stroke:none;fill-rule:nonzero;fill:rgb(100%,100%,100%);fill-opacity:1;" d="M 238.414062 80.417969 L 246.414062 80.417969 L 246.414062 91.417969 L 238.414062 91.417969 Z M 238.414062 80.417969 "/>
<g style="fill:rgb(100%,0%,0%);fill-opacity:1;">
  <use xlink:href="#glyph0-1" x="238.414062" y="89.081055"/>
</g>
<path style="fill:none;stroke-width:1.2;stroke-linecap:butt;stroke-linejoin:miter;stroke:rgb(100%,0%,0%);stroke-opacity:1;stroke-miterlimit:10;" d="M 46.320312 134.5625 L 40.785156 123.179688 "/>
<path style="fill:none;stroke-width:1.2;stroke-linecap:butt;stroke-linejoin:miter;stroke:rgb(0%,0%,0%);stroke-opacity:1;stroke-miterlimit:10;" d="M 40.785156 123.179688 L 35.25 111.796875 "/>
<path style=" stroke:none;fill-rule:nonzero;fill:rgb(100%,100%,100%);fill-opacity:1;" d="M 42.320312 129.0625 L 50.320312 129.0625 L 50.320312 140.0625 L 42.320312 140.0625 Z M 42.320312 129.0625 "/>
<g style="fill:rgb(100%,0%,0%);fill-opacity:1;">
  <use xlink:href="#glyph0-1" x="42.320312" y="137.725586"/>
</g>
</g>
</svg>

<svg xmlns="http://www.w3.org/2000/svg" xmlns:xlink="http://www.w3.org/1999/xlink" width="300pt" height="300pt" viewBox="0 0 300 300"><defs><symbol overflow="visible"><path d="M.453 1.594v-7.938h4.5v7.938zm.5-.5h3.5v-6.938h-3.5zm0 0"/></symbol><symbol overflow="visible" id="a"><path d="M3.547-5.953c-.65 0-1.164.242-1.547.72-.375.48-.563 1.13-.563 1.952 0 .835.188 1.49.563 1.967.383.48.898.72 1.547.72.644 0 1.156-.24 1.53-.72.376-.476.564-1.132.564-1.968 0-.822-.187-1.474-.562-1.954-.375-.477-.887-.72-1.53-.72zm0-.734c.914 0 1.648.312 2.203.937.55.617.828 1.438.828 2.47 0 1.042-.277 1.87-.828 2.483-.555.617-1.29.922-2.203.922-.93 0-1.668-.305-2.22-.922C.774-1.41.5-2.237.5-3.28c0-1.033.273-1.853.828-2.47.55-.625 1.29-.938 2.22-.938zm0 0"/></symbol></defs><g><path fill="#fff" d="M0 0h300v300H0z"/><path d="M214.184 194.176l16.496 19.71 5.75-6.835zm0 0"/><path d="M214.184 194.176l-19.12 16.582M227.246 172.492l-13.062 21.684M195.063 210.758l-11.657 4.933" stroke-width="1.2" stroke="#000" stroke-miterlimit="10" fill="none"/><path d="M183.406 215.69l-11.656 4.93M171.75 220.62l-12.61 1.09" stroke-width="1.2" stroke="#f00" stroke-miterlimit="10" fill="none"/><path d="M159.14 221.71l-12.61 1.087" stroke-width="1.2" stroke="#000" stroke-miterlimit="10" fill="none"/><path d="M167.75 215.12h8v11h-8zm0 0" fill="#fff"/><use xlink:href="#a" x="167.75" y="223.784" fill="#f00"/><path d="M143.56 222.586l-.9 12.625" stroke-width="1.2" stroke="#000" stroke-miterlimit="10" fill="none"/><path d="M142.66 235.21l-.894 12.626" stroke-width="1.2" stroke="#f00" stroke-miterlimit="10" fill="none"/><path d="M149.5 223.012l-.898 12.62" stroke-width="1.2" stroke="#000" stroke-miterlimit="10" fill="none"/><path d="M148.602 235.633l-.9 12.625" stroke-width="1.2" stroke="#f00" stroke-miterlimit="10" fill="none"/><path d="M146.53 222.797l-24.66-5.723" stroke-width="1.2" stroke="#000" stroke-miterlimit="10" fill="none"/><path d="M140.734 242.547h8v11h-8zm0 0" fill="#fff"/><use xlink:href="#a" x="140.734" y="251.21" fill="#f00"/><path d="M121.87 217.074l-21.68-13.062M100.19 204.012l-16.585-19.12M103.03 198.2l-13.264-15.302M83.605 184.89l-9.86-23.312M73.746 161.578l-2.18-25.22" stroke-width="1.2" stroke="#000" stroke-miterlimit="10" fill="none"/><path d="M73.746 161.578m-2.996.203l.254 1.013m-3.246-.805l.504 2.024m-3.496-1.82l.754 3.038m-3.747-2.832l1.004 4.047m-3.996-3.843l1.255 5.062m-4.25-4.855l1.508 6.07m-4.5-5.868l1.758 7.086m-4.75-6.88l2.01 8.098m-3.708-7.98l2.148 8.672" stroke="#000" stroke-miterlimit="10" fill="none"/><path d="M71.566 136.36l5.727-24.66" stroke-width="1.2" stroke="#000" stroke-miterlimit="10" fill="none"/><path d="M71.566 136.36l-24.93-6.255-.632 8.91zm0 0"/><path d="M77.293 111.7l6.53-10.84" stroke-width="1.2" stroke="#000" stroke-miterlimit="10" fill="none"/><path d="M83.824 100.86l6.53-10.84M90.355 90.02l9.563-8.293" stroke-width="1.2" stroke="#f00" stroke-miterlimit="10" fill="none"/><path d="M99.918 81.727l9.56-8.293" stroke-width="1.2" stroke="#000" stroke-miterlimit="10" fill="none"/><path d="M86.355 84.52h8v11h-8zm0 0" fill="#fff"/><use xlink:href="#a" x="86.355" y="93.183" fill="#f00"/><path d="M112.004 71.86l-6.692-10.743" stroke-width="1.2" stroke="#000" stroke-miterlimit="10" fill="none"/><path d="M105.313 61.117L98.617 50.38" stroke-width="1.2" stroke="#f00" stroke-miterlimit="10" fill="none"/><path d="M106.95 75.012l-6.692-10.742" stroke-width="1.2" stroke="#000" stroke-miterlimit="10" fill="none"/><path d="M100.258 64.27l-6.695-10.743" stroke-width="1.2" stroke="#f00" stroke-miterlimit="10" fill="none"/><path d="M109.477 73.434l23.312-9.864" stroke-width="1.2" stroke="#000" stroke-miterlimit="10" fill="none"/><path d="M88.09 46.453h8v11h-8zm0 0" fill="#fff"/><use xlink:href="#a" x="88.09" y="55.116" fill="#f00"/><path d="M132.79 63.57l25.218-2.175M158.008 61.395l24.66 5.726M159.13 67.77l19.725 4.578M182.668 67.12l21.68 13.064M204.348 80.184l16.586 19.12" stroke-width="1.2" stroke="#000" stroke-miterlimit="10" fill="none"/><path d="M204.348 80.184m2.3-1.926l-.796-.672m3.097-1.254l-1.595-1.344m3.895-.582l-2.395-2.01m4.696.084l-3.19-2.683m5.492.758l-3.99-3.356m6.29 1.43l-4.79-4.028m7.09 2.1l-5.585-4.694m7.887 2.773l-6.383-5.37m7.69 4.278l-6.837-5.754" stroke="#000" stroke-miterlimit="10" fill="none"/><path d="M220.934 99.305l9.86 23.312" stroke-width="1.2" stroke="#000" stroke-miterlimit="10" fill="none"/><path d="M220.934 99.305m2.78-1.118l-.55-.886m3.336-.234l-1.105-1.77m3.886.65l-1.655-2.657m4.438 1.534l-2.204-3.54m4.988 2.42l-2.758-4.423m5.54 3.306l-3.31-5.313m6.094 4.192l-3.86-6.195m6.64 5.074l-4.41-7.078m5.993 6.44l-4.726-7.58" stroke="#000" stroke-miterlimit="10" fill="none"/><path d="M230.793 122.617l1.09 12.61" stroke-width="1.2" stroke="#000" stroke-miterlimit="10" fill="none"/><path d="M231.883 135.227l1.09 12.61M232.973 147.836l-2.864 12.328" stroke-width="1.2" stroke="#f00" stroke-miterlimit="10" fill="none"/><path d="M230.11 160.164l-2.864 12.328" stroke-width="1.2" stroke="#000" stroke-miterlimit="10" fill="none"/><path d="M228.973 142.336h8v11h-8zm0 0" fill="#fff"/><use xlink:href="#a" x="228.973" y="150.999" fill="#f00"/><path d="M226.13 175.254l11.73 4.754" stroke-width="1.2" stroke="#000" stroke-miterlimit="10" fill="none"/><path d="M237.86 180.008l11.726 4.758" stroke-width="1.2" stroke="#f00" stroke-miterlimit="10" fill="none"/><path d="M228.367 169.734l11.727 4.754" stroke-width="1.2" stroke="#000" stroke-miterlimit="10" fill="none"/><path d="M240.094 174.488l11.73 4.758" stroke-width="1.2" stroke="#f00" stroke-miterlimit="10" fill="none"/><path d="M246.707 176.504h8v11h-8zm0 0" fill="#fff"/><use xlink:href="#a" x="246.707" y="185.167" fill="#f00"/><path d="M242.414 85.918l11.168 5.953" stroke-width="1.2" stroke="#f00" stroke-miterlimit="10" fill="none"/><path d="M253.582 91.87l11.168 5.958" stroke-width="1.2" stroke="#000" stroke-miterlimit="10" fill="none"/><path d="M238.414 80.418h8v11h-8zm0 0" fill="#fff"/><use xlink:href="#a" x="238.414" y="89.081" fill="#f00"/><path d="M46.32 134.563l-5.535-11.383" stroke-width="1.2" stroke="#f00" stroke-miterlimit="10" fill="none"/><path d="M40.785 123.18l-5.535-11.383" stroke-width="1.2" stroke="#000" stroke-miterlimit="10" fill="none"/><path d="M42.32 129.063h8v11h-8zm0 0" fill="#fff"/><use xlink:href="#a" x="42.32" y="137.726" fill="#f00"/></g></svg>
